src/icons/dapp/dapp-refresh.svg

<svg width="24" height="24" viewBox="0 0 24 24" fill="currentColor" xmlns="http://www.w3.org/2000/svg">
<path fill-rule="evenodd" clip-rule="evenodd" d="M17.1347 16.3299C15.7933 18.1764 13.6251 19.3867 11.1429 19.3954C7.03276 19.404 3.74128 16.1042 3.74128 11.9933C3.74128 7.88283 7.03249 4.60011 11.1433 4.60011C14.6275 4.60011 17.5186 6.95017 18.3192 10.1671H17.1953C16.8583 10.1671 16.6035 10.2847 16.4999 10.5145C16.3989 10.7385 16.4681 11.0151 16.647 11.274L18.6293 14.097C18.7864 14.3179 18.9955 14.4474 19.2218 14.4488C19.4485 14.4502 19.6603 14.3229 19.8221 14.0974L21.7956 11.2832C21.9832 11.0203 22.0553 10.7419 21.9541 10.5159C21.8504 10.2845 21.593 10.1671 21.2564 10.1671H20.0972C19.2434 6.01898 15.521 2.84998 11.1433 2.84998C6.1497 2.84998 2 6.99068 2 11.9933C2 16.9871 6.14963 21.1366 11.1433 21.1366C14.1659 21.1366 16.8451 19.6031 18.5374 17.3115C18.8769 16.871 18.7726 16.3033 18.3553 16.0424L18.3531 16.041C17.921 15.7839 17.4306 15.9255 17.1347 16.3299Z" fill="currentColor"/>
</svg>

<svg width="24" height="24" fill="currentColor" xmlns="http://www.w3.org/2000/svg"><path fill-rule="evenodd" clip-rule="evenodd" d="M17.135 16.33a7.406 7.406 0 0 1-5.992 3.065 7.368 7.368 0 0 1-7.402-7.402A7.366 7.366 0 0 1 11.143 4.6c3.484 0 6.376 2.35 7.176 5.567h-1.124c-.337 0-.591.118-.695.348-.101.223-.032.5.147.759l1.982 2.823c.157.22.366.35.593.352.226.001.438-.126.6-.352l1.974-2.814c.187-.263.26-.541.158-.767-.104-.232-.361-.349-.698-.349h-1.159c-.854-4.148-4.576-7.317-8.954-7.317C6.15 2.85 2 6.99 2 11.993c0 4.994 4.15 9.144 9.143 9.144 3.023 0 5.702-1.534 7.394-3.826.34-.44.236-1.008-.182-1.269l-.002-.001c-.432-.257-.922-.116-1.218.289z"/></svg>
